symbols/web/accessible/materialsymbolsrounded/accessible_grad200_40px.svg

<svg xmlns="http://www.w3.org/2000/svg" height="40" width="40"><path d="M20 9.333q-1.458 0-2.438-1-.979-1-.979-2.416 0-1.417.979-2.417.98-1 2.438-1 1.417 0 2.417 1 1 1 1 2.417 0 1.416-1 2.416t-2.417 1Zm10.375 27.959q-.708 0-1.208-.521t-.5-1.271v-6.917H20q-1.5 0-2.5-1.021-1-1.02-1-2.479V14.875q0-1.625 1-2.604 1-.979 2.5-.979.917 0 1.771.354.854.354 1.687 1.479 1.25 1.75 3.084 3.104 1.833 1.354 4.125 1.729.625.125 1.062.584.438.458.438 1.083 0 .833-.605 1.375-.604.542-1.354.375-1.875-.292-3.646-1.125-1.77-.833-3.104-1.917v5.834h5.209q1.416 0 2.458 1.021 1.042 1.02 1.042 2.479V35.5q0 .75-.542 1.271-.542.521-1.25.521Zm-13.958 0q-3.667 0-6.167-2.5t-2.5-6.167q0-2.958 1.896-5.292 1.896-2.333 4.937-3.041v3.875q-1.541.375-2.416 1.708t-.875 2.75q0 2.167 1.458 3.667t3.667 1.5q1.416 0 2.75-.896Q20.5 32 20.833 30.458h3.875q-.666 3.042-3 4.938-2.333 1.896-5.291 1.896Z"/></svg>

<svg xmlns="http://www.w3.org/2000/svg" height="40" width="40"><path d="M20 9.333Q18.542 9.333 17.562 8.333Q16.583 7.333 16.583 5.917Q16.583 4.5 17.562 3.5Q18.542 2.5 20 2.5Q21.417 2.5 22.417 3.5Q23.417 4.5 23.417 5.917Q23.417 7.333 22.417 8.333Q21.417 9.333 20 9.333ZM30.375 37.292Q29.667 37.292 29.167 36.771Q28.667 36.25 28.667 35.5V28.583Q28.667 28.583 28.667 28.583Q28.667 28.583 28.667 28.583H20Q18.5 28.583 17.5 27.562Q16.5 26.542 16.5 25.083V14.875Q16.5 13.25 17.5 12.271Q18.5 11.292 20 11.292Q20.917 11.292 21.771 11.646Q22.625 12 23.458 13.125Q24.708 14.875 26.542 16.229Q28.375 17.583 30.667 17.958Q31.292 18.083 31.729 18.542Q32.167 19 32.167 19.625Q32.167 20.458 31.562 21Q30.958 21.542 30.208 21.375Q28.333 21.083 26.562 20.25Q24.792 19.417 23.458 18.333V24.167H28.667Q30.083 24.167 31.125 25.188Q32.167 26.208 32.167 27.667V35.5Q32.167 36.25 31.625 36.771Q31.083 37.292 30.375 37.292ZM16.417 37.292Q12.75 37.292 10.25 34.792Q7.75 32.292 7.75 28.625Q7.75 25.667 9.646 23.333Q11.542 21 14.583 20.292V24.167Q13.042 24.542 12.167 25.875Q11.292 27.208 11.292 28.625Q11.292 30.792 12.75 32.292Q14.208 33.792 16.417 33.792Q17.833 33.792 19.167 32.896Q20.5 32 20.833 30.458H24.708Q24.042 33.5 21.708 35.396Q19.375 37.292 16.417 37.292Z"/></svg>
